X:1
T:Title
%%score ( 1 2 ) { 3 | 4 }
L:1/8
Q:1/4=110
M:4/4
K:F
V:1 treble nm="Grand Piano, Unnamed-000"
V:2 treble 
V:3 bass nm="Choir Pad, O Welt, Ich Muss Dich"
V:4 bass 
V:1
 [FA]2 [DF]2 [EG]2 [FA][GB] | [Ac]2 c2- [Gc]2 [FA]2 | .A2 c2 c2 G2 | z2 F4 z2 | z4 z2 A2 | %5
w: By~German~melody * * * *|||||
 [CA]2 [CG]6 | z4 z2 .A2 | z2 B4 z2 | .A2 z2 c2 z2 | z2 G4 z2 | z2 F2 G2 A2 | B2 z2 z4 | z8 |] %13
w: ||||||||
V:2
 x8 | z2 A2 z4 | F-[FB]FE FDED | [CA]2 C2 B,2 [CE]2 | [G,C]2 [CF]2 [B,G]2 A,B, | x8 | %6
 [EA]2 [DF]2 [CG]2 C-[CB] | [Dc]2 DC DE [^FA]2 | F-[FB] [Gc]2 FE [DG]2 | [EA]2 E2 D2 [^CE]2 | %10
 C2 CD CB,A,C | DE [FA]2 G2 [CF]2- | [CF]6 z2 |] %13
V:3
 C2 B,A, B,2 CB, | A,G, F,2[K:treble] C2 C2 | D2 C2 C2 C2 | E,2 F,E, F,2 G,2 | E,D, C,2 D,E, F,2 | %5
 F,2 E,6 | A,2 A,B, A,G,F,G, | A,2 G,A, B,[K:treble]C D2 | D2 CB,[K:bass] A,2 =B,2 | E,2 A,4 z2 | %10
 A,2 A,B, A,G,F,E, | F,2 D2 G,A,/B,/ A,2- | A,6 z2 |] %13
V:4
 F,2 z2 G,2 F,2- | F,F, D,2 E,2 F,2 | D,2 A,,G,, A,,B,,C,B,, | A,,2 D,4 C,2 | %4
 B,,2 A,,2 G,,2 F,,G,, | A,,B,, C,6 | ^C,2 D,2 E,2 z2 | ^F,2 z2 G,,2 D,2 | D,2 E,2 F,2 F,E, | %9
 D,C,D,E, F,G, A,2 | A,,2 F,2 E,2 z2 | D,C, B,,2 C,2 [F,,F,]2- | [F,,F,]6 z2 |] %13

